svgs/sharp-light/images-user.svg

<svg xmlns="http://www.w3.org/2000/svg" viewBox="0 0 576 512"><!--! Font Awesome Pro 6.6.0 by @fontawesome - https://fontawesome.com License - https://fontawesome.com/license (Commercial License) Copyright 2024 Fonticons, Inc. --><path d="M544 64L128 64l0 288 92 0 36-96 80 0 80 0 36 96 92 0 0-288zM464 384l-34.2 0-187.6 0L208 384l-80 0-32 0 0-32L96 64l0-32 32 0 416 0 32 0 0 32 0 288 0 32-32 0-80 0zm-46.2-32l-24-64-115.6 0-24 64 163.6 0zM32 96l0 16 0 336 432 0 16 0 0 32-16 0L16 480 0 480l0-16L0 112 0 96l32 0zm240 64a64 64 0 1 1 128 0 64 64 0 1 1 -128 0zm96 0a32 32 0 1 0 -64 0 32 32 0 1 0 64 0z"/></svg>

<svg xmlns="http://www.w3.org/2000/svg" viewBox="0 0 576 512"><!--! Font Awesome Pro 6.5.2 by @fontawesome - https://fontawesome.com License - https://fontawesome.com/license (Commercial License) Copyright 2024 Fonticons, Inc. --><path d="M544 64H128V352h92l36-96h80 80l36 96h92V64zM464 384H429.8 242.2 208 128 96V352 64 32h32H544h32V64 352v32H544 464zm-46.2-32l-24-64H278.2l-24 64H417.8zM32 96v16V448H464h16v32H464 16 0V464 112 96H32zm240 64a64 64 0 1 1 128 0 64 64 0 1 1 -128 0zm96 0a32 32 0 1 0 -64 0 32 32 0 1 0 64 0z"/></svg>
